images_sukapura_svg/cmd/sc_insertmath.svg

<svg viewBox="0 0 16 16" xmlns="http://www.w3.org/2000/svg" xmlns:xlink="http://www.w3.org/1999/xlink"><linearGradient id="a" gradientUnits="userSpaceOnUse" x1="8.178385" x2="8.178385" y1="13.52059" y2=".003321"><stop offset="0" stop-color="#0040dd"/><stop offset="1" stop-color="#0a84ff"/></linearGradient>




     /&amp;amp;amp;gt;
 <path d="m15.58747 2h-2.58747v10.104962c0 .645154.113338 1.089787.340014 1.3339.226675.235394.536175.353091.928498.353091.217958 0 .431556-.03051.640795-.09154s.396683-.143851.562331-.248472l.575407 1.739301c-.401041.270267-.793365.453351-1.17697.549253-.383605.0959-.810802.143852-1.28159.143852-1.037477 0-2.237148-.3095-2.777683-.928499-.540535-.619001-.810802-1.617247-.810802-2.994738v-9.96111h-5v14h-3v-14h-2l-.00000006-1.99999862h15.58747006z" fill="url(#a)"/></svg>

<?xml version="1.0" encoding="UTF-8" standalone="no"?>
<svg
   xmlns:dc="http://purl.org/dc/elements/1.1/"
   xmlns:cc="http://creativecommons.org/ns#"
   xmlns:rdf="http://www.w3.org/1999/02/22-rdf-syntax-ns#"
   xmlns:svg="http://www.w3.org/2000/svg"
   xmlns="http://www.w3.org/2000/svg"
   xmlns:xlink="http://www.w3.org/1999/xlink"
   xmlns:sodipodi="http://sodipodi.sourceforge.net/DTD/sodipodi-0.dtd"
   xmlns:inkscape="http://www.inkscape.org/namespaces/inkscape"
   viewBox="0 0 16 16"
   version="1.1"
   id="svg2296"
   sodipodi:docname="sc_insertmath.svg"
   inkscape:version="0.92.3 (2405546, 2018-03-11)"
   inkscape:export-filename="D:\Rizmut\libreoffice-style-sukapura-master\images_sukapura\cmd\sc_insertmath.png"
   inkscape:export-xdpi="96"
   inkscape:export-ydpi="96"><metadata
   id="metadata2302">
  <rdf:RDF>
    <cc:Work
       rdf:about="">
      <dc:format>image/svg+xml</dc:format>
      <dc:type
         rdf:resource="http://purl.org/dc/dcmitype/StillImage" />
    </cc:Work>
  </rdf:RDF>
</metadata>
<defs
   id="defs2300">
  <linearGradient
     gradientTransform="matrix(0.67586345,0,0,0.67586345,-1.2837032,-1.3484059)"
     inkscape:collect="always"
     xlink:href="#a-5"
     id="linearGradient2121"
     x1="14"
     y1="22"
     x2="14"
     y2="2"
     gradientUnits="userSpaceOnUse" />
  <linearGradient
     id="a-5"
     gradientUnits="userSpaceOnUse"
     x1="-15.79661"
     x2="-15.423729"
     y1="23.084747"
     y2="3.6610169"
     gradientTransform="translate(-31.972656,-0.8476562)">
    <stop
       offset="0"
       stop-color="#0040dd"
       id="stop1551" />
    <stop
       offset="1"
       stop-color="#0a84ff"
       id="stop1553" />
  </linearGradient>
  <linearGradient
     inkscape:collect="always"
     xlink:href="#a-5"
     id="linearGradient2859"
     x1="14"
     y1="22"
     x2="14"
     y2="2"
     gradientUnits="userSpaceOnUse" />
</defs>
<sodipodi:namedview
   pagecolor="#ffffff"
   bordercolor="#666666"
   borderopacity="1"
   objecttolerance="10"
   gridtolerance="10"
   guidetolerance="10"
   inkscape:pageopacity="0"
   inkscape:pageshadow="2"
   inkscape:window-width="1366"
   inkscape:window-height="716"
   id="namedview2298"
   showgrid="true"
   inkscape:zoom="14.75"
   inkscape:cx="-12.239681"
   inkscape:cy="2.5333659"
   inkscape:window-x="-8"
   inkscape:window-y="-8"
   inkscape:window-maximized="1"
   inkscape:current-layer="svg2296">
  <inkscape:grid
     type="xygrid"
     id="grid2869" />
</sodipodi:namedview>
<linearGradient
   id="a"
   gradientUnits="userSpaceOnUse"
   x1="-20.81356"
   x2="-20.81356"
   y1="6.711865"
   y2="-9.288135"
   gradientTransform="translate(-16)">
  <stop
     offset="0"
     stop-color="#0040dd"
     id="stop2289" />
  <stop
     offset="1"
     stop-color="#0a84ff"
     id="stop2291" />
</linearGradient>




     /&amp;gt;
 <g
   aria-label="π"
   style="font-style:normal;font-weight:normal;font-size:26.78261566px;line-height:1.25;font-family:sans-serif;letter-spacing:0px;word-spacing:0px;fill:url(#linearGradient2121);fill-opacity:1;stroke:none;stroke-width:0.66956532"
   id="text2113">
  <path
     d="M 15.58747,2 H 13 v 10.104962 c 0,0.645154 0.113338,1.089787 0.340014,1.3339 0.226675,0.235394 0.536175,0.353091 0.928498,0.353091 0.217958,0 0.431556,-0.03051 0.640795,-0.09154 0.209239,-0.06103 0.396683,-0.143851 0.562331,-0.248472 l 0.575407,1.739301 c -0.401041,0.270267 -0.793365,0.453351 -1.17697,0.549253 -0.383605,0.0959 -0.810802,0.143852 -1.28159,0.143852 -1.037477,0 -2.237148,-0.3095 -2.777683,-0.928499 C 10.270267,14.336847 10,13.338601 10,11.96111 V 2 H 5 V 16 H 2 V 2 H 0 L -5.5879354e-8,1.3783574e-6 H 15.58747 Z"
     style="font-style:normal;font-variant:normal;font-weight:normal;font-stretch:normal;font-family:'Roboto Slab';-inkscape-font-specification:'Roboto Slab';fill:url(#linearGradient2121);fill-opacity:1;stroke-width:0.66956532"
     id="path2892"
     inkscape:connector-curvature="0"
     sodipodi:nodetypes="ccscssccsscsccccccccc" />
</g>
</svg>
